logos/ant-design.svg

<?xml version="1.0" encoding="UTF-8"?>
<svg width="256px" height="256px" viewBox="0 0 256 256" version="1.1" xmlns="http://www.w3.org/2000/svg" xmlns:xlink="http://www.w3.org/1999/xlink">
    <!-- Generator: Sketch 61 (89581) - https://sketch.com -->
    <title>Group</title>
    <desc>Created with Sketch.</desc>
    <defs>
        <linearGradient x1="62.1023273%" y1="0%" x2="108.19718%" y2="37.8635764%" id="linearGradient-1">
            <stop stop-color="#4285EB" offset="0%"></stop>
            <stop stop-color="#2EC7FF" offset="100%"></stop>
        </linearGradient>
        <linearGradient x1="69.644116%" y1="0%" x2="54.0428975%" y2="108.456714%" id="linearGradient-2">
            <stop stop-color="#29CDFF" offset="0%"></stop>
            <stop stop-color="#148EFF" offset="37.8600687%"></stop>
            <stop stop-color="#0A60FF" offset="100%"></stop>
        </linearGradient>
        <linearGradient x1="69.6908165%" y1="-12.9743587%" x2="16.7228981%" y2="117.391248%" id="linearGradient-3">
            <stop stop-color="#FA816E" offset="0%"></stop>
            <stop stop-color="#F74A5C" offset="41.472606%"></stop>
            <stop stop-color="#F51D2C" offset="100%"></stop>
        </linearGradient>
        <linearGradient x1="68.1279872%" y1="-35.6905737%" x2="30.4400914%" y2="114.942679%" id="linearGradient-4">
            <stop stop-color="#FA8E7D" offset="0%"></stop>
            <stop stop-color="#F74A5C" offset="51.2635191%"></stop>
            <stop stop-color="#F51D2C" offset="100%"></stop>
        </linearGradient>
    </defs>
    <g stroke="none" stroke-width="1" fill="none" fill-rule="evenodd">
        <g fill-rule="nonzero">
            <path d="M116.850078,4.54548777 L4.52892893,116.774275 C-1.50964298,122.807881 -1.50964298,132.553174 4.52892893,138.586781 L116.850078,250.815568 C122.88865,256.849175 132.641964,256.849175 138.680536,250.815568 L185.77519,203.759641 C191.183172,198.356106 191.183172,189.595245 185.77519,184.191711 C180.367208,178.788175 171.599136,178.788175 166.191154,184.191711 L130.489075,219.864432 C128.986084,221.366187 126.704989,221.366187 125.201998,219.864432 L35.5055378,130.241729 C34.0025469,128.739974 34.0025469,126.460755 35.5055378,124.959 L125.201998,35.3362976 C126.704989,33.8345425 128.986084,33.8345425 130.489075,35.3362976 L166.191154,71.009019 C171.599136,76.4125539 180.367208,76.4125539 185.77519,71.009019 C191.183172,65.605484 191.183172,56.8446228 185.77519,51.4410879 L138.685727,4.39028013 C132.622361,-1.51275655 122.86548,-1.46496803 116.850078,4.54548777 Z" fill="url(#linearGradient-1)"></path>
            <path d="M116.850078,4.54548777 L4.52892893,116.774275 C-1.50964298,122.807881 -1.50964298,132.553174 4.52892893,138.586781 L116.850078,250.815568 C122.88865,256.849175 132.641964,256.849175 138.680536,250.815568 L185.77519,203.759641 C191.183172,198.356106 191.183172,189.595245 185.77519,184.191711 C180.367208,178.788175 171.599136,178.788175 166.191154,184.191711 L130.489075,219.864432 C128.986084,221.366187 126.704989,221.366187 125.201998,219.864432 L35.5055378,130.241729 C34.0025469,128.739974 34.0025469,126.460755 35.5055378,124.959 L125.201998,35.3362976 C128.944397,32.1100005 135.050525,25.5752137 144.017405,24.0468431 C150.68143,22.9109853 157.967021,25.4109881 165.874177,31.546852 C160.587747,26.2647619 151.52493,17.2125713 138.685727,4.39028013 C132.622361,-1.51275655 122.86548,-1.46496803 116.850078,4.54548777 Z" fill="url(#linearGradient-2)"></path>
            <path d="M196.646643,173.754365 C202.054625,179.157899 210.822696,179.157899 216.230677,173.754365 L250.970004,139.043604 C257.008576,133.009998 257.008576,123.264704 250.970711,117.231801 L215.928547,82.342615 C210.507763,76.945494 201.736908,76.953277 196.325725,82.3600099 C190.917743,87.7635449 190.917743,96.524406 196.325725,101.927941 L219.993396,125.57615 C221.496387,127.077905 221.496387,129.357124 219.993396,130.858879 L196.646643,154.186433 C191.23866,159.589968 191.23866,168.350829 196.646643,173.754365 Z" fill="url(#linearGradient-3)"></path>
            <ellipse fill="url(#linearGradient-4)" cx="128.326913" cy="128.241672" rx="30.3267102" ry="30.3017724"></ellipse>
        </g>
    </g>
</svg>

<svg viewBox="0 0 256 256" xmlns="http://www.w3.org/2000/svg">
  <defs>
    <linearGradient id="ant-design_svg__a" x1="62.102%" x2="108.197%" y1="0%" y2="37.864%">
      <stop offset="0%" stop-color="#4285EB"/>
      <stop offset="100%" stop-color="#2EC7FF"/>
    </linearGradient>
    <linearGradient id="ant-design_svg__b" x1="69.644%" x2="54.043%" y1="0%" y2="108.457%">
      <stop offset="0%" stop-color="#29CDFF"/>
      <stop offset="37.86%" stop-color="#148EFF"/>
      <stop offset="100%" stop-color="#0A60FF"/>
    </linearGradient>
    <linearGradient id="ant-design_svg__c" x1="69.691%" x2="16.723%" y1="-12.974%" y2="117.391%">
      <stop offset="0%" stop-color="#FA816E"/>
      <stop offset="41.473%" stop-color="#F74A5C"/>
      <stop offset="100%" stop-color="#F51D2C"/>
    </linearGradient>
    <linearGradient id="ant-design_svg__d" x1="68.128%" x2="30.44%" y1="-35.691%" y2="114.943%">
      <stop offset="0%" stop-color="#FA8E7D"/>
      <stop offset="51.264%" stop-color="#F74A5C"/>
      <stop offset="100%" stop-color="#F51D2C"/>
    </linearGradient>
  </defs>
  <g fill="none">
    <path fill="url(#ant-design_svg__a)" d="M116.85 4.545 4.53 116.775a15.396 15.396 0 0 0 0 21.812l112.32 112.229c6.039 6.033 15.792 6.033 21.83 0l47.095-47.056c5.408-5.404 5.408-14.165 0-19.568-5.408-5.404-14.176-5.404-19.584 0l-35.702 35.672c-1.503 1.502-3.784 1.502-5.287 0l-89.696-89.622c-1.503-1.502-1.503-3.781 0-5.283l89.696-89.623c1.503-1.501 3.784-1.501 5.287 0l35.702 35.673c5.408 5.404 14.176 5.404 19.584 0 5.408-5.404 5.408-14.164 0-19.568l-47.09-47.05c-6.063-5.904-15.82-5.856-21.835.154Z"/>
    <path fill="url(#ant-design_svg__b)" d="M116.85 4.545 4.53 116.775a15.396 15.396 0 0 0 0 21.812l112.32 112.229c6.039 6.033 15.792 6.033 21.83 0l47.095-47.056c5.408-5.404 5.408-14.165 0-19.568-5.408-5.404-14.176-5.404-19.584 0l-35.702 35.672c-1.503 1.502-3.784 1.502-5.287 0l-89.696-89.622c-1.503-1.502-1.503-3.781 0-5.283l89.696-89.623c3.742-3.226 9.849-9.76 18.815-11.29 6.664-1.135 13.95 1.365 21.857 7.5L138.686 4.39c-6.064-5.903-15.82-5.855-21.836.155Z"/>
    <path fill="url(#ant-design_svg__c)" d="M196.647 173.754c5.408 5.404 14.176 5.404 19.584 0l34.739-34.71a15.396 15.396 0 0 0 0-21.812l-35.041-34.89c-5.421-5.397-14.192-5.389-19.603.018-5.408 5.404-5.408 14.164 0 19.568l23.667 23.648c1.503 1.502 1.503 3.781 0 5.283l-23.346 23.327c-5.408 5.404-5.408 14.165 0 19.568Z"/>
    <ellipse cx="128.327" cy="128.242" fill="url(#ant-design_svg__d)" rx="30.327" ry="30.302"/>
  </g>
</svg>
